X: 08041
T: Harvest Home
R: strathspey
B: RSCDS 8-4
B: Lowe's Collection
Z: John Chambers <jc:trillian.mit.edu>
N: Alternative tune for The Lover's Knot
M: C
L: 1/8
%--------------------
K: F
|: A \
| "F"F<F A>F c>F A>F | "C7"C<C E>C G>C E>C \
| "F"F<F A>F c>F A>F | "Bb"(3def "C7"(3gab "F"a<f f :|
a \
| "F"f<f a>f "C7"b>g "F"a>f | "Bb"d<b g>f "C7"e>d c>e \
| "F"f<f a>f "C7"b>g "F"a>f | "Bb"d<b "C7"g>e "F"f2 F>c |
| "F"f<f a>f "C7"b>g "F"a>f | "Bb"d<b g>f "C7"e>d c>e \
| "F"(3fga "C7"gab "F"(3agf "Am"edc | "Bb"(3Bcd "C7"cde "F"(3fcB (3AGF |]
%%center Book08/08041-Harvest_Home-1.abc

%%sep 1 1 500
%%sep 1 1 500

